dist/images/svg_sprite/book.svg

<svg width="45" height="45" viewBox="0 0 45 45" fill="none" xmlns="http://www.w3.org/2000/svg">
<path d="M42.6924 36.0124H40.3075C40.3916 35.7772 40.4454 30.7694 40.4454 30.7694C40.4454 29.5285 39.4393 28.5225 38.1984 28.5225H5.24292C4.00204 28.5225 2.99596 29.5285 2.99596 30.7694V35.2634C2.99852 35.519 3.04496 35.7724 3.13383 36.0124H2.24697C1.00609 36.0124 0 37.0184 0 38.2593V42.7533C0 43.9941 1.00609 45.0002 2.24697 45.0002H42.6924C43.9332 45.0002 44.9393 43.9941 44.9393 42.7533V38.2593C44.9393 37.0184 43.9332 36.0124 42.6924 36.0124ZM22.4697 39.0083V43.5023H21.7207V39.0083H20.2227V43.5023H12.7328V41.2553H11.2348V43.5023H8.98787V37.5103H29.9596V41.2553H31.4575V37.5103H35.9515V43.5023H23.9676V39.0083H22.4697ZM5.99191 37.5103H7.48989V43.5023H5.99191V37.5103ZM8.98787 36.0124V30.0204H10.4858V36.0124H8.98787ZM32.9555 36.0124V30.0204H34.4535V36.0124H32.9555ZM37.4494 37.5103H38.9474V43.5023H37.4494V37.5103ZM38.9474 30.7694V35.2634C38.9474 35.677 38.6121 36.0124 38.1984 36.0124H35.9515V30.0204H38.1984C38.6121 30.0204 38.9474 30.3558 38.9474 30.7694ZM21.7207 30.0204V31.5184H23.2187V30.0204H28.4616V33.7654H29.9596V30.0204H31.4575V36.0124H17.2267V33.7654H15.7288V36.0124H11.9838V30.0204H21.7207ZM4.49393 35.2634V30.7694C4.49393 30.3558 4.8293 30.0204 5.24292 30.0204H7.48989V36.0124H5.24292C4.8293 36.0124 4.49393 35.677 4.49393 35.2634ZM1.49798 42.7533V38.2593C1.49798 37.8457 1.83334 37.5103 2.24697 37.5103H4.49393V43.5023H2.24697C1.83334 43.5023 1.49798 43.1669 1.49798 42.7533ZM43.4413 42.7533C43.4413 43.1669 43.106 43.5023 42.6924 43.5023H40.4454V37.5103H42.6924C43.106 37.5103 43.4413 37.8457 43.4413 38.2593V42.7533Z" fill="#4054B2"/>
<path d="M1.49798 26.2754H3.74494V24.7774H1.49798V13.5426H7.48989V27.0244H8.98787V23.2794H12.7328V21.7815H8.98787V8.29967H16.4778V2.30776C16.4778 1.06688 15.4717 0.060791 14.2308 0.060791H9.73686C8.49598 0.060791 7.48989 1.06688 7.48989 2.30776V3.19462C7.24998 3.10575 6.99654 3.05931 6.7409 3.05675H2.24697C1.00609 3.05675 0 4.06283 0 5.30371V34.5143H1.49798V26.2754ZM7.48989 12.0446H1.49798V10.5466H7.48989V12.0446ZM8.98787 6.80169V5.30371H14.9798V6.80169H8.98787ZM9.73686 1.55877H14.2308C14.6444 1.55877 14.9798 1.89413 14.9798 2.30776V3.80574H8.98787V2.30776C8.98787 1.89413 9.32323 1.55877 9.73686 1.55877ZM2.24697 4.55472H6.7409C7.15453 4.55472 7.48989 4.89009 7.48989 5.30371V9.04866H1.49798V5.30371C1.49798 4.89009 1.83334 4.55472 2.24697 4.55472Z" fill="#4054B2"/>
<path d="M9.99341 12.0447C9.99377 12.3402 10.1679 12.6082 10.4378 12.7286L15.7286 15.0878V24.0285C15.7286 24.3024 15.8782 24.5548 16.1188 24.6861L16.1883 24.7234C22.8644 28.5202 31.0463 28.5232 37.725 24.731L37.808 24.6861C38.0487 24.5548 38.1982 24.3024 38.1982 24.0285V15.0878L41.1942 13.7515V23.0974L38.8865 25.4058L41.9432 30.6249L44.9998 25.4058L42.6922 23.0974V13.0844L43.4891 12.7286C43.759 12.6079 43.9327 12.3402 43.9327 12.0447C43.9327 11.7492 43.759 11.4815 43.4891 11.3608L27.2684 4.12799C27.0742 4.04132 26.8526 4.04132 26.6584 4.12799L10.4378 11.3608C10.1679 11.4811 9.99377 11.7492 9.99341 12.0447ZM41.9432 27.6612L40.7634 25.6472L41.9432 24.4674L43.123 25.6472L41.9432 27.6612ZM36.7003 23.5882C30.6323 26.9034 23.2945 26.9034 17.2266 23.5882V15.756L26.6584 19.9614C26.8526 20.048 27.0742 20.048 27.2684 19.9614L36.7003 15.756V23.5882ZM26.9634 5.63182L41.3441 12.0447L26.9634 18.4575L12.5827 12.0447L26.9634 5.63182Z" fill="#4054B2"/>
<path d="M14.98 26.2754H16.478V27.6454H14.98V26.2754Z" fill="url(#paint0_linear)"/>
<defs>
<linearGradient id="paint0_linear" x1="15.729" y1="48.2659" x2="15.729" y2="0.497858" gradientUnits="userSpaceOnUse">
<stop stop-color="#006DF0"/>
<stop offset="1" stop-color="#00E7F0"/>
</linearGradient>
</defs>
</svg>

<svg width="45" height="45" fill="none" xmlns="http://www.w3.org/2000/svg"><path d="M42.692 36.012h-2.385c.085-.235.138-5.243.138-5.243a2.247 2.247 0 0 0-2.247-2.246H5.243a2.247 2.247 0 0 0-2.247 2.246v4.494c.003.256.049.51.138.75h-.887A2.247 2.247 0 0 0 0 38.258v4.494A2.247 2.247 0 0 0 2.247 45h40.445a2.247 2.247 0 0 0 2.247-2.247V38.26a2.247 2.247 0 0 0-2.247-2.247zM22.47 39.008v4.494h-.75v-4.494h-1.497v4.494h-7.49v-2.247h-1.498v2.247H8.988V37.51H29.96v3.745h1.497V37.51h4.495v5.992H23.968v-4.494H22.47zM5.992 37.51H7.49v5.992H5.992V37.51zm2.996-1.498V30.02h1.498v5.992H8.988zm23.968 0V30.02h1.497v5.992h-1.498zm4.493 1.498h1.498v5.992H37.45V37.51zm1.498-6.74v4.493a.749.749 0 0 1-.749.75h-2.246V30.02h2.246a.75.75 0 0 1 .75.75zm-17.226-.75v1.498h1.498V30.02h5.243v3.745h1.498V30.02h1.497v5.992h-14.23v-2.247h-1.498v2.247h-3.745V30.02h9.737zM4.494 35.263V30.77a.75.75 0 0 1 .749-.749H7.49v5.992H5.243a.75.75 0 0 1-.75-.749zm-2.996 7.49V38.26a.75.75 0 0 1 .749-.749h2.247v5.992H2.247a.75.75 0 0 1-.749-.749zm41.943 0a.749.749 0 0 1-.749.75h-2.247V37.51h2.247a.75.75 0 0 1 .75.75v4.493z" fill="#4054B2"/><path d="M1.498 26.275h2.247v-1.498H1.498V13.543H7.49v13.481h1.498V23.28h3.745v-1.497H8.988V8.3h7.49V2.308A2.247 2.247 0 0 0 14.23.06H9.737A2.247 2.247 0 0 0 7.49 2.308v.887a2.22 2.22 0 0 0-.75-.138H2.248A2.247 2.247 0 0 0 0 5.304v29.21h1.498v-8.239zm5.992-14.23H1.498v-1.498H7.49v1.498zm1.498-5.243V5.304h5.992v1.498H8.988zm.749-5.243h4.494a.75.75 0 0 1 .749.749v1.498H8.988V2.308a.75.75 0 0 1 .749-.75zm-7.49 2.996h4.494c.414 0 .749.335.749.749v3.745H1.498V5.304a.75.75 0 0 1 .749-.75z" fill="#4054B2"/><path d="M9.993 12.045a.75.75 0 0 0 .445.684l5.29 2.359v8.94c0 .274.15.527.39.658l.07.037a21.796 21.796 0 0 0 21.537.008l.083-.045a.75.75 0 0 0 .39-.657v-8.941l2.996-1.336v9.345l-2.308 2.309 3.057 5.219L45 25.405l-2.308-2.308V13.084l.797-.355a.75.75 0 0 0 0-1.368L27.27 4.128a.748.748 0 0 0-.61 0l-16.221 7.233a.75.75 0 0 0-.445.684zm31.95 15.616l-1.18-2.014 1.18-1.18 1.18 1.18-1.18 2.014zM36.7 23.588a20.308 20.308 0 0 1-19.473 0v-7.832l9.431 4.205a.749.749 0 0 0 .61 0l9.432-4.205v7.832zM26.963 5.632l14.381 6.413-14.38 6.412-14.381-6.412 14.38-6.413z" fill="#4054B2"/><path d="M14.98 26.275h1.498v1.37H14.98v-1.37z" fill="url(#paint0_linear)"/><defs><linearGradient id="paint0_linear" x1="15.729" y1="48.266" x2="15.729" y2=".498" gradientUnits="userSpaceOnUse"><stop stop-color="#006DF0"/><stop offset="1" stop-color="#00E7F0"/></linearGradient></defs></svg>
